X: 502
T: Exultet orbis Laudys
C: Anonim
L: 1/4
M: 3/1
N: Derived from pl-kk--kk-i-368--002_anonim--exultet-orbis-laudys.krn
%%staves [1 2 3 4]
V: 1
V: 2 clef=alto
V: 3 clef=tenor
V: 4 clef=bass
K: C
[V:1] A4B4^c4 | 
[V:2] E4E4E4 | 
[V:3] C4B,4A,4 | 
[V:4] A,4^G,4A,4 | 
[V:1] d8c4 | 
[V:2] F8E4 | 
[V:3] A,8A,4 | 
[V:4] D,8A,,4 | 
[V:1] B4>B4!breath!B4 | 
[V:2] E4>E4!breath!E4 | 
[V:3] ^G,4>G,4!breath!G,4 | 
[V:4] E,4>E,4!breath!E,4 | 
[V:1] e2d2e2f2g2e2 | 
[V:2] G4G4G4 | 
[V:3] C2B,2C2D2E2C2 | 
[V:4] C,4C,4C,4 | 
[V:1] f8e4 | 
[V:2] F2G2A2F2G4 | 
[V:3] A,8C4 | 
[V:4] D,8E,4 | 
[V:1] d4>d4!breath!d4 | 
[V:2] G4>G4!breath!G4 | 
[V:3] B,4>B,4!breath!B,4 | 
[V:4] G,4>G,4!breath!G,4 | 
[V:1] d4d4d4 | 
[V:2] G4G4A4 | 
[V:3] B,4B,4A,4 | 
[V:4] x4x4F,4 | 
[V:1] d8^c4 | 
[V:2] G8G4 | 
[V:3] B,8G,4 | 
[V:4] G,8E,4 | 
[V:1] d4>d4!breath!d4 | 
[V:2] ^F4>F4!breath!F4 | 
[V:3] A,4>A,4!breath!A,4 | 
[V:4] D,4>D,4!breath!D,4 | 
[V:1] =f4f4e4 | 
[V:2] A4A4G4 | 
[V:3] D4A,4C4 | 
[V:4] D,4D,4E,4 | 
[V:1] d8c4 | 
[V:2] G8E4 | 
[V:3] B,8A,4 | 
[V:4] G,8A,4 | 
[V:1] B8B4 | 
[V:2] F4E6E2 | 
[V:3] A,8^G,4 | 
[V:4] D,4E,6E,2 | 
[V:1] A12 | 
[V:2] !breath!E12 | 
[V:3] A,12 | 
[V:4] A,,12 | 
[V:1] d4d4d4 | 
[V:2] G4G4A4 | 
[V:3] B,4B,4A,4 | 
[V:4] G,4G,4^F,4 [|] 
[V:1] d8^c4 | 
[V:2] G8G4 | 
[V:3] B,8G,4 | 
[V:4] G,8E,4 | 
[V:1] d4>d4d4 | 
[V:2] ^F4>F4!breath!F4 | 
[V:3] A,4>A,4A,4 | 
[V:4] D,4>D,4!breath!D,4 | 
[V:1] f4>f4e4 | 
[V:2] A4A4G4 | 
[V:3] D4A,4C4 | 
[V:4] D,4D,4E,4 | 
[V:1] d8c4 | 
[V:2] G8E4 | 
[V:3] B,8A,4 | 
[V:4] G,8A,4 | 
[V:1] B8B4 | 
[V:2] F4E6E2 | 
[V:3] A,8^G,4 | 
[V:4] D,4E,6E,2 | 
[V:1] A12 |]  
[V:2] E12 |]  
[V:3] A,12 |]  
[V:4] A,,8-A,,4 |]  

